22x22/apps/chrome-jjphmlaoffndcnecccgemfdaaoighkel-Default.svg

<svg xmlns="http://www.w3.org/2000/svg" width="22" height="22" version="1">
 <path opacity=".2" d="m2 21.5c-0.554 0-1-0.446-1-1v-0.5c0 0.554 0.446 1 1 1h18c0.554 0 1-0.446 1-1v0.5c0 0.554-0.446 1-1 1h-18z"/>
 <rect fill="#c2352a" width="20" height="20" x="1" y="1" rx="1" ry="1"/>
 <path fill="#fff" style="opacity:0.1" d="m2 1c-0.554 0-1 0.446-1 1v0.5c0-0.554 0.446-1 1-1h18c0.554 0 1 0.446 1 1v-0.5c0-0.554-0.446-1-1-1h-18z"/>
 <path style="opacity:0.2" d="M 11.148438,6.5 C 9.4585375,6.4995 7.0456656,6.6030531 6.3222656,6.6269531 5.5357656,6.6985531 5.2454063,6.7399812 4.8164062,7.1132812 4.1559063,7.7054813 4,8.8695906 4,10.650391 v 1.693359 c 0,2.031 0.2651113,3.066159 0.7070312,3.443359 0.5049001,0.442 0.8395582,0.473391 1.1738282,0.525391 0.1302,0.02 1.0546437,0.1875 5.1523436,0.1875 2.5547,0 4.749363,-0.124574 4.976563,-0.152344 0.36603,-0.04777 0.885579,-0.113347 1.287109,-0.560547 C 17.883875,15.111109 18,13.985469 18,12.355469 V 10.382813 C 18,9.3284125 17.942875,7.8398437 17.296875,7.2148438 16.806875,6.7938437 16.629188,6.6753469 15.617188,6.6230469 15.331188,6.6103469 12.839437,6.5005 11.148438,6.5 Z M 10,8.5 l 4,3 -4,3 z"/>
 <path style="fill:#f9f9f9" d="M 11.148438 6 C 9.4585375 5.9995 7.0456656 6.1030531 6.3222656 6.1269531 C 5.5357656 6.1985531 5.2454063 6.2399812 4.8164062 6.6132812 C 4.1559063 7.2054813 4 8.3695906 4 10.150391 L 4 11.84375 C 4 13.87475 4.2651113 14.909909 4.7070312 15.287109 C 5.2119313 15.729109 5.5465894 15.7605 5.8808594 15.8125 C 6.0110594 15.8325 6.9355031 16 11.033203 16 C 13.587903 16 15.782566 15.875426 16.009766 15.847656 C 16.375796 15.799886 16.895345 15.734309 17.296875 15.287109 C 17.883875 14.611109 18 13.485469 18 11.855469 L 18 9.8828125 C 18 8.8284125 17.942875 7.3398437 17.296875 6.7148438 C 16.806875 6.2938437 16.629188 6.1753469 15.617188 6.1230469 C 15.331188 6.1103469 12.839437 6.0005 11.148438 6 z M 10 8 L 14 11 L 10 14 L 10 8 z"/>
 <g>
  <circle style="fill:#03a9f4" cx="16" cy="16" r="6"/>
  <path style="fill:#f4f4f7" d="m 18,12 3,3 h -1 l -2,2 c 1.5,1.5 -0.5,2.5 -0.5,2.5 L 16,18 14,20 h -1 v -1 l 2,-2 -1.5,-1.5 c 0,0 1,-2 2.5,-0.5 l 2,-2 z"/>
 </g>
</svg>

<svg xmlns="http://www.w3.org/2000/svg" width="22" height="22" version="1"><path opacity=".2" d="M2 21.5c-.554 0-1-.446-1-1V20c0 .554.446 1 1 1h18c.554 0 1-.446 1-1v.5c0 .554-.446 1-1 1H2z"/><rect fill="#c2352a" width="20" height="20" x="1" y="1" rx="1" ry="1"/><path fill="#fff" style="opacity:.1" d="M2 1c-.554 0-1 .446-1 1v.5c0-.554.446-1 1-1h18c.554 0 1 .446 1 1V2c0-.554-.446-1-1-1H2z"/><path style="opacity:.2" d="M11.148 6.5c-1.69 0-4.102.103-4.826.127-.786.072-1.077.113-1.506.486C4.156 7.705 4 8.87 4 10.65v1.694c0 2.03.265 3.066.707 3.443.505.442.84.474 1.174.526.13.02 1.055.187 5.152.187 2.555 0 4.75-.125 4.977-.152.366-.048.885-.114 1.287-.56.587-.677.703-1.803.703-3.433v-1.972c0-1.055-.057-2.543-.703-3.168-.49-.421-.668-.54-1.68-.592-.286-.013-2.778-.123-4.469-.123zM10 8.5l4 3-4 3z"/><path style="fill:#f9f9f9" d="M11.148 6c-1.69 0-4.102.103-4.826.127-.786.072-1.077.113-1.506.486C4.156 7.205 4 8.37 4 10.15v1.694c0 2.03.265 3.066.707 3.443.505.442.84.473 1.174.525.13.02 1.055.188 5.152.188 2.555 0 4.75-.125 4.977-.152.366-.048.885-.114 1.287-.56.587-.677.703-1.803.703-3.433V9.883c0-1.055-.057-2.543-.703-3.168-.49-.421-.668-.54-1.68-.592C15.331 6.11 12.84 6 11.148 6zM10 8l4 3-4 3V8z"/><circle style="fill:#03a9f4" cx="16" cy="16" r="6"/><path style="fill:#f4f4f7" d="m18 12 3 3h-1l-2 2c1.5 1.5-.5 2.5-.5 2.5L16 18l-2 2h-1v-1l2-2-1.5-1.5s1-2 2.5-.5l2-2z"/></svg>
